svg/system/polygon_line.svg

<?xml version="1.0" encoding="UTF-8"?>
<svg width="24px" height="24px" viewBox="0 0 24 24" version="1.1" xmlns="http://www.w3.org/2000/svg" xmlns:xlink="http://www.w3.org/1999/xlink">
    <title>polygon_line</title>
    <g id="Icon" stroke="none" stroke-width="1" fill="none" fill-rule="evenodd">
        <g id="System" transform="translate(-528.000000, -384.000000)">
            <g id="polygon_line" transform="translate(528.000000, 384.000000)">
                <path d="M24,0 L24,24 L0,24 L0,0 L24,0 Z M12.5935,23.2578 L12.5819,23.2595 L12.5109,23.295 L12.4919,23.2987 L12.4767,23.295 L12.4057,23.2595 C12.3958,23.2564 12.387,23.259 12.3821,23.2649 L12.378,23.2758 L12.3609,23.7031 L12.3659,23.7235 L12.3769,23.7357 L12.4805,23.8097 L12.4953,23.8136 L12.5071,23.8097 L12.6107,23.7357 L12.6233,23.7197 L12.6267,23.7031 L12.6096,23.2758 C12.6076,23.2657 12.601,23.2593 12.5935,23.2578 Z M12.8584,23.1453 L12.8445,23.1473 L12.6598,23.2397 L12.6499,23.2499 L12.6472,23.2611 L12.6651,23.6906 L12.6699,23.7034 L12.6784,23.7105 L12.8793,23.8032 C12.8914,23.8069 12.9022,23.803 12.9078,23.7952 L12.9118,23.7812 L12.8777,23.1665 C12.8753,23.1546 12.8674,23.147 12.8584,23.1453 Z M12.143,23.1473 C12.1332,23.1424 12.1222,23.1453 12.1156,23.1526 L12.1099,23.1665 L12.0758,23.7812 C12.0751,23.7927 12.0828,23.8019 12.0926,23.8046 L12.1083,23.8032 L12.3092,23.7105 L12.3186,23.7024 L12.3225,23.6906 L12.3404,23.2611 L12.3372,23.2485 L12.3278,23.2397 L12.143,23.1473 Z" id="MingCute" fill-rule="nonzero"></path>
                <path d="M6.90732,3.90784 C7.36090095,3.0914019 8.50075855,3.0525239 9.01969054,3.79120599 L9.09271,3.90784 L11,7.34098 L11,6.00011 C11,4.94574773 11.81585,4.08194483 12.8507339,4.00559573 L13,4.00011 L19,4.00011 C20.0543909,4.00011 20.9181678,4.81598733 20.9945144,5.85084759 L21,6.00011 L21,12.0001 C21,13.0544909 20.18415,13.9182678 19.1492661,13.9946144 L19,14.0001 L16.793,14.0001 C16.9278,14.4769 17,14.9801 17,15.5001 C17,18.5377 14.5376,21.0001 11.5,21.0001 C8.46245,21.0001 6.00002,18.5377 6.00002,15.5001 C6.00002,15.0841 6.0462024,14.678852 6.1337288,14.2892712 L6.20705,14.0001 L3.42489,14.0001 C2.51322913,14.0001 1.92238066,13.0632992 2.27780848,12.2527474 L2.3322,12.1431 L6.90732,3.90784 Z M11.5,12.0001 C9.56702,12.0001 8.00002,13.5671 8.00002,15.5001 C8.00002,17.4331 9.56702,19.0001 11.5,19.0001 C13.433,19.0001 15,17.4331 15,15.5001 C15,13.5671 13.433,12.0001 11.5,12.0001 Z M19,6.00011 L13,6.00011 L13,10.2071 C14.0893,10.5152 15.0412,11.1505 15.7429,12.00011 L19,12.00011 L19,6.00011 Z M8.00002,6.05924 L4.69953,12.0001 L7.25718,12.0001 C7.95714923,11.1525308 8.90619586,10.5182349 9.99220831,10.2093712 L10.2665,10.139 L8.00002,6.05924 Z" id="形状" fill="#09244B"></path>
            </g>
        </g>
    </g>
</svg>

<svg xmlns="http://www.w3.org/2000/svg" width="24" height="24"><g fill="none" fill-rule="evenodd"><path d="M24 0v24H0V0h24ZM12.594 23.258l-.012.002-.071.035-.02.004-.014-.004-.071-.036c-.01-.003-.019 0-.024.006l-.004.01-.017.428.005.02.01.013.104.074.015.004.012-.004.104-.074.012-.016.004-.017-.017-.427c-.002-.01-.009-.017-.016-.018Zm.264-.113-.014.002-.184.093-.01.01-.003.011.018.43.005.012.008.008.201.092c.012.004.023 0 .029-.008l.004-.014-.034-.614c-.003-.012-.01-.02-.02-.022Zm-.715.002a.023.023 0 0 0-.027.006l-.006.014-.034.614c0 .012.007.02.017.024l.015-.002.201-.093.01-.008.003-.011.018-.43-.003-.012-.01-.01-.184-.092Z"/><path fill="#09244B" d="M6.907 3.908A1.25 1.25 0 0 1 9.02 3.79l.073.117L11 7.34v-1.34a2 2 0 0 1 1.85-1.995L13 4h6a2 2 0 0 1 1.995 1.85L21 6v6a2 2 0 0 1-1.85 1.995L19 14h-2.207a5.5 5.5 0 1 1-10.66.29l.074-.29H3.425a1.25 1.25 0 0 1-1.147-1.747l.054-.11 4.575-8.235ZM11.5 12a3.5 3.5 0 1 0 0 7 3.5 3.5 0 0 0 0-7ZM19 6h-6v4.207A5.504 5.504 0 0 1 15.743 12H19V6ZM8 6.06 4.7 12h2.557a5.504 5.504 0 0 1 2.735-1.79l.274-.071L8 6.059Z"/></g></svg>
